X:1
T:The Dress'd Ship   [A]
L:1/8
M:4/4
I:linebreak $
K:A
V:1 treble 
V:1
 e |"A" cAEc"D" d2 (d/e/f) |"A" ecac"Bm" dB-"E7"Be"^I" |"A" cAEc"D" df"A"ea | %4
"Bm" fd"E7"Be"A" cA-A :: f/g/ |$"A" aecA"D" f/g/a/f/"A" ec |"D" df"A"ec"Bm" dB-"E7" Bf/g/ | %8
"A" aecA"D" f/g/a/f/"A" ec |"Bm" fd"E7"Be"A" cA-A :| %10
